X:568
T:Reel 568
M:4/4
K:Cmaj
L:1/8
GF|EDEF GccB|GccB cdec|BcBG FEFD||EFGA BGFD:||2EGFD E2|G2|cdef gfec|Bcde fdBG|cdef gfeg|fdBc dcc2|cdef gfec|Bcde f2ef|gfed ecdB|GccB c2|
